X: 29396
T: Nicholas McAuliffe's
R: slide
M: 12/8
K: Dmajor
ABc dcd B2e e2d|c2a a^ga f2e dcB|ABc dcd B2e e2d|1 cea gfe d3 dcB:|2 cea gfe d3 d2e|:
f2f fef g3g2f|efe ede f3f2e|ded def g2B e2d|1 cea gfe d3 d2e:|2 1cea gfe d3 dcB||

